X: 11
T:Ungaresca
R:---
C:Pierre Phal?se
C:1583
Z:Transcrit et/ou corrig? par Michel BELLON - 2007-08-23
Z:Pour toute observation mailto:galouvielle@free.fr
M:4/4
L:1/4
K:Bbmaj
V:1
Q:C2/1=132
"Bb"BB cB|BF FG/2A/2|BBcB|F2 F2 ::
dddc/2d/2|edcB|dddc/2d/2|edce|dBcB/2=A/2|B2 B2:|
T:Saltarello
L:1/4
Q:3/8=132
Z:Transcrit et/ou corrig? par Michel BELLON - 2007-08-23
Z:Pour toute observation mailto:galouvielle@free.fr
M:6/8
BB/2cB/2|BF/2F G/4A/4|BB/2cB/2|F3/2 F3/2 ::
dd/2dc/4d/4|ed/2 cB/2|dd/2 dc/4d/4|ed/2 ce/2|dB/2 cB/4=A/4|B3/2 B3/2:|
<end>
<start>
